X: 2
T: Gasp\'e Reel v1
O: French Canadian
R: reel
Z: Transcribed to abc by Mary Lou Knack
D: Isidore Soucy (fiddle) & Donat Lafleur (accordion) "Quadrille du peuple 1\`ere partie" Starr 15532 A 1929.
F: http://www.collectionscanada.ca/obj/m2/f7/15992.mp3 (with 3rd part from Mony Musk)
M: C|
L: 1/8
K: D
|: "D"f2ef e2dB | AFAF B2A2 | "A7"g2fg f2ed |1,3     BABc     (3BcBA2 :|2,4 B2c2 "D"d4 :|
|:"A7"e2f2 g2fe |"D"f2g2 a4 | "A7"e2f2 g2e2 |1,3 "Em"BABc "A7"(3BcBA2 :|2,4 B2c2 "D"d4 :|


